X: 155
T: Stille Nacht
T: Silent Night - Zwiefacher
T: W4P4W4PW3PWPWPW3
C: Franz Gruber
Z: John Chambers <jc@trillian.mit.edu>
N: Arrangement by the Cambidge Folk Orchestra (Massachusetts, USA)
M: 3/4
L: 1/4
P: In Bb
K: Bb
| "Bb"[FD]>[GE][FD] |[D3B,3] | "Bb"[FD]>[GE][FD] |[D3B,3] \
|[M:2/4][L:1/4] "F7"[c2F2] |[A2-E2-] | "Bb"[B2D2] |[F2D2] \
|[M:3/4][L:1/4] "Eb"[G2E2][GE] |[BG]>[AF][GE] | "Bb"[FD]>[GE][FD] |[D3B,3] |
|[M:2/4][L:1/4] "Eb"[G2E2] \
|[M:3/4][L:1/4] [BG]>[AF][GE] |"Bb"[FD]>[GE][FD] |[D3B,3] \
|[M:2/4][L:1/4] "F7"[c2F2] \
|[M:3/4][L:1/4] [eA]>[cF][AE] \
|[M:2/4][L:1/4] "Bb"[B2D2] \
|[M:3/4][L:1/4] [d3F3] \
|[M:2/4][L:1/4] [BD2][DB,] \
|[M:3/4][L:1/4] "F7"[FA,2]>E[CA,] | "Bb"[B,3-B,3-] |[B,B,]zz |]
%%sep 10 10 200
P: In F:
M: 3/4
L: 1/4
K: F
| "F"[cA]>[dB][cA] |[A3F3] | "F"[cA]>[dB][cA] |[A3F3] \
|[M:2/4][L:1/4] "C7"[g2c2] |[e2-B2-] | "F"[f2A2] |[c2A2] \
|[M:3/4][L:1/4] "Bb"[d2B2][dB] |[fd]>[ec][dB] | "F"[cA]>[dB][cA] |[A3F3] |
|[M:2/4][L:1/4] "Bb"[d2B2] \
|[M:3/4][L:1/4] [fd]>[ec][dB] |"F"[cA]>[dB][cA] |[A3F3] \
|[M:2/4][L:1/4] "C7"[g2c2] \
|[M:3/4][L:1/4] [be]>[gc][eB] \
|[M:2/4][L:1/4] "F"[f2A2] \
|[M:3/4][L:1/4] [a3c3] \
|[M:2/4][L:1/4] [fA2][AF] \
|[M:3/4][L:1/4] "C7"[cE2]>B[GE] | "F"[F3-F3-] |[FF]zz |]
%%sep 10 10 200
P: In C:
M: 3/4
L: 1/4
K: C
| "C"[GE]>[AF][GE] |[E3C3] | "C"[GE]>[AF][GE] |[E3C3] \
|[M:2/4][L:1/4] "G7"[d2G2] |[B2-F2-] | "C"[c2E2] |[G2E2] \
|[M:3/4][L:1/4] "F"[A2F2][AF] |[cA]>[BG][AF] | "C"[GE]>[AF][GE] |[E3C3] |
|[M:2/4][L:1/4] "F"[A2F2] \
|[M:3/4][L:1/4] [cA]>[BG][AF] |"C"[GE]>[AF][GE] |[E3C3] \
|[M:2/4][L:1/4] "G7"[d2G2] \
|[M:3/4][L:1/4] [fB]>[dG][BF] \
|[M:2/4][L:1/4] "C"[c2E2] \
|[M:3/4][L:1/4] [e3G3] \
|[M:2/4][L:1/4] [cE2][EC] \
|[M:3/4][L:1/4] "G7"[GB,2]>F[DB,] | "C"[C3-C3-] |[CC]zz |]
%%sep 10 10 200
P: In G:
M: 3/4
L: 1/4
K: G
| "G"[dB]>[ec][dB] |[B3G3] | "G"[dB]>[ec][dB] |[B3G3] \
|[M:2/4][L:1/4] "D7"[a2d2] |[f2-c2-] | "G"[g2B2] |[d2B2] \
|[M:3/4][L:1/4] "C"[e2c2][ec] |[ge]>[fd][ec] | "G"[dB]>[ec][dB] |[B3G3] |
|[M:2/4][L:1/4] "C"[e2c2] \
|[M:3/4][L:1/4] [ge]>[fd][ec] |"G"[dB]>[ec][dB] |[B3G3] \
|[M:2/4][L:1/4] "D7"[a2d2] \
|[M:3/4][L:1/4] [c'f]>[ad][fc] \
|[M:2/4][L:1/4] "G"[g2B2] \
|[M:3/4][L:1/4] [b3d3] \
|[M:2/4][L:1/4] [gB2][BG] \
|[M:3/4][L:1/4] "D7"[dF2]>c[AF] | "G"[G3-G3-] |[GG]zz |]
%%sep 2 1 500
